X:24
T:The Roaring Barmaid
M:6/8
Q:3/8=110
R:Jig
K:G
|: GFG EGD | GFG EGD | GFG BGG | dGG BdB |
   GFG EGD | GFG EGD | GAB deg | deg edB :|
|: deg b2b- | bab deg | b2b- bag | edB deg |
   b2b- bag | agg bgg | agg efg | deg edB :|
%
|: GFG EGD | GFG EGD | GFG BGG | dGG BdB |
   GFG EGD | GFG EGD | GAB deg | deg edB :|
|: deg b2b- | bab deg | b2b- bag | edB deg |
   b2b- bag | agg bgg | agg efg | deg edB :|
%
|: GFG EGD | GFG EGD | GFG BGG | dGG BdB |
   GFG EGD | GFG EGD | GAB deg | deg edB :|
|: deg b2b- | bab deg | b2b- bag | edB deg |
   b2b- bag | agg bgg | agg efg | deg edB :|

